lesson_7/img/2.svg

<svg width="32" height="32" viewBox="0 0 32 32" fill="none" xmlns="http://www.w3.org/2000/svg">
<path d="M31.6636 0H0.213013V32H31.6636V0Z" fill="white"/>
<g clip-path="url(#clip0_4203_179)">
<path d="M22.4181 12.741C22.4281 12.8831 22.4281 13.0253 22.4281 13.1674C22.4281 17.5024 19.1509 22.4973 13.161 22.4973C11.3156 22.4973 9.60132 21.9593 8.1593 21.0253C8.42149 21.0557 8.67357 21.0659 8.94585 21.0659C10.4685 21.0659 11.8702 20.5481 12.9895 19.6649C11.5576 19.6344 10.3576 18.6903 9.94415 17.3908C10.1458 17.4212 10.3475 17.4415 10.5593 17.4415C10.8517 17.4415 11.1442 17.4009 11.4164 17.3298C9.92401 17.0253 8.80465 15.7055 8.80465 14.1116V14.071C9.23825 14.3146 9.74249 14.4669 10.2769 14.4872C9.39959 13.8983 8.82483 12.8933 8.82483 11.7562C8.82483 11.1471 8.98614 10.5887 9.26851 10.1014C10.8719 12.0913 13.282 13.3907 15.9844 13.5329C15.934 13.2892 15.9038 13.0354 15.9038 12.7816C15.9038 10.9745 17.3559 9.50244 19.1609 9.50244C20.0987 9.50244 20.9457 9.89838 21.5407 10.538C22.2768 10.3958 22.9827 10.1217 23.6079 9.7461C23.3659 10.5075 22.8516 11.1471 22.176 11.5532C22.8315 11.4822 23.4668 11.2994 24.0516 11.0456C23.608 11.6953 23.0533 12.274 22.4181 12.741Z" fill="black"/>
</g>
<defs>
<clipPath id="clip0_4203_179">
<rect width="15.8924" height="16" fill="white" transform="translate(8.1593 8)"/>
</clipPath>
</defs>
</svg>

<svg width="32" height="32" fill="none" xmlns="http://www.w3.org/2000/svg"><path d="M31.664 0H.213v32h31.45V0Z" fill="#fff"/><g clip-path="url(#a)"><path d="M22.418 12.741c.01.142.01.284.01.426 0 4.335-3.277 9.33-9.267 9.33a9.16 9.16 0 0 1-5.002-1.472c.262.03.515.04.787.04a6.495 6.495 0 0 0 4.043-1.4 3.266 3.266 0 0 1-3.045-2.274c.202.03.403.05.615.05.293 0 .585-.04.857-.111a3.274 3.274 0 0 1-2.611-3.218v-.041c.433.244.937.396 1.472.416a3.283 3.283 0 0 1-1.452-2.73c0-.61.161-1.168.444-1.656a9.238 9.238 0 0 0 6.715 3.432 3.727 3.727 0 0 1-.08-.751c0-1.807 1.452-3.28 3.257-3.28a3.24 3.24 0 0 1 2.38 1.036 6.388 6.388 0 0 0 2.067-.792 3.266 3.266 0 0 1-1.432 1.807 6.493 6.493 0 0 0 1.876-.507 7.028 7.028 0 0 1-1.634 1.695Z" fill="#000"/></g><defs><clipPath id="a"><path fill="#fff" transform="translate(8.16 8)" d="M0 0h15.892v16H0z"/></clipPath></defs></svg>
